X:921
T:Xiraldilla (CT 461)
R:Xiraldilla
C:Tradicional
S:Msica Tradicional Asturiana, (C) Tello & Tito. Asturies, 2001.
S:http://pagina.de/MusTradAst <telloytito@asturies.org>
N:Xiraldilla, dictada por Jovita Cue Landa, de veintisis aos, de Uviu.
A:Asturies
O:Uviu
Z:Cancioneru de Torner 461
M:3/4
L:1/8
Q:1/4=116
K:G
|dg gd dg|g2 f4|fa af fa|a2 g4|
dg gd dg|g2 f4|fa af fa|a2 gd dg|
[M:3/8]
[Q:3/8=88]
g2 f|dce|e2 d|ddg|
g2 f|dce|e2 d-|d2 z||
W:No la llames, no la llames,
W:no la llames, que no viene,
W:por que se qued dormida
W:en brazos de quien ms quiere.
W:
W:Que no la llames, que ya no viene,
W:que no la llames, que no te quiere.
W:
